assets/icons/24px/stroke/calculator-24px.svg

<svg width="24" height="24" viewBox="0 0 24 24" fill="none" xmlns="http://www.w3.org/2000/svg">
<path fill-rule="evenodd" clip-rule="evenodd" d="M8.43417 2C8.45604 2 8.47799 2 8.5 2L15.5658 2C16.4523 1.99995 17.2161 1.99991 17.8278 2.08215C18.4833 2.17028 19.1117 2.36902 19.6213 2.87868C20.131 3.38835 20.3297 4.0167 20.4179 4.67221C20.5001 5.28388 20.5001 6.0477 20.5 6.9342V17.0658C20.5001 17.9523 20.5001 18.7161 20.4179 19.3278C20.3297 19.9833 20.131 20.6117 19.6213 21.1213C19.1117 21.631 18.4833 21.8297 17.8278 21.9179C17.2161 22.0001 16.4523 22.0001 15.5658 22H8.4342C7.5477 22.0001 6.78388 22.0001 6.17221 21.9179C5.5167 21.8297 4.88835 21.631 4.37868 21.1213C3.86902 20.6117 3.67028 19.9833 3.58215 19.3278C3.49991 18.7161 3.49995 17.9523 3.5 17.0658L3.5 7C3.5 6.97799 3.5 6.95604 3.5 6.93417C3.49995 6.04769 3.49991 5.28387 3.58215 4.67221C3.67028 4.0167 3.86902 3.38835 4.37868 2.87868C4.88835 2.36902 5.5167 2.17028 6.17221 2.08215C6.78387 1.99991 7.54769 1.99995 8.43417 2ZM6.43871 4.06431C6.00497 4.12263 5.86902 4.21677 5.7929 4.2929C5.71677 4.36902 5.62263 4.50497 5.56431 4.93871C5.50213 5.40121 5.5 6.02893 5.5 7V17C5.5 17.9711 5.50213 18.5988 5.56431 19.0613C5.62263 19.495 5.71677 19.631 5.7929 19.7071C5.86902 19.7832 6.00497 19.8774 6.43871 19.9357C6.90121 19.9979 7.52893 20 8.5 20H15.5C16.4711 20 17.0988 19.9979 17.5613 19.9357C17.995 19.8774 18.131 19.7832 18.2071 19.7071C18.2832 19.631 18.3774 19.495 18.4357 19.0613C18.4979 18.5988 18.5 17.9711 18.5 17V7C18.5 6.02893 18.4979 5.40122 18.4357 4.93871C18.3774 4.50497 18.2832 4.36902 18.2071 4.2929C18.131 4.21677 17.995 4.12263 17.5613 4.06431C17.0988 4.00213 16.4711 4 15.5 4H8.5C7.52893 4 6.90122 4.00213 6.43871 4.06431Z" fill="white"/>
<path d="M7 17.5C7 16.9477 7.44772 16.5 8 16.5H10C10.5523 16.5 11 16.9477 11 17.5V17.5C11 18.0523 10.5523 18.5 10 18.5H8C7.44772 18.5 7 18.0523 7 17.5V17.5Z" fill="white"/>
<path d="M7 6.5C7 5.94772 7.44772 5.5 8 5.5H16C16.5523 5.5 17 5.94772 17 6.5V6.5C17 7.05228 16.5523 7.5 16 7.5H8C7.44772 7.5 7 7.05228 7 6.5V6.5Z" fill="white"/>
<path d="M9 10C9 10.5523 8.55228 11 8 11C7.44772 11 7 10.5523 7 10C7 9.44772 7.44772 9 8 9C8.55228 9 9 9.44772 9 10Z" fill="white"/>
<path d="M9 14C9 14.5523 8.55228 15 8 15C7.44772 15 7 14.5523 7 14C7 13.4477 7.44772 13 8 13C8.55228 13 9 13.4477 9 14Z" fill="white"/>
<path d="M13 14C13 14.5523 12.5523 15 12 15C11.4477 15 11 14.5523 11 14C11 13.4477 11.4477 13 12 13C12.5523 13 13 13.4477 13 14Z" fill="white"/>
<path d="M13 10C13 10.5523 12.5523 11 12 11C11.4477 11 11 10.5523 11 10C11 9.44772 11.4477 9 12 9C12.5523 9 13 9.44772 13 10Z" fill="white"/>
<path d="M17 10C17 10.5523 16.5523 11 16 11C15.4477 11 15 10.5523 15 10C15 9.44772 15.4477 9 16 9C16.5523 9 17 9.44772 17 10Z" fill="white"/>
<path d="M17 14C17 14.5523 16.5523 15 16 15C15.4477 15 15 14.5523 15 14C15 13.4477 15.4477 13 16 13C16.5523 13 17 13.4477 17 14Z" fill="white"/>
<path d="M17 17.5C17 18.0523 16.5523 18.5 16 18.5C15.4477 18.5 15 18.0523 15 17.5C15 16.9477 15.4477 16.5 16 16.5C16.5523 16.5 17 16.9477 17 17.5Z" fill="white"/>
</svg>

<svg width="24" height="24" fill="none" xmlns="http://www.w3.org/2000/svg"><path fill-rule="evenodd" clip-rule="evenodd" d="M8.434 2h7.132c.886 0 1.65 0 2.262.082.655.088 1.284.287 1.793.797.51.51.709 1.138.797 1.793.082.612.082 1.376.082 2.262v10.132c0 .886 0 1.65-.082 2.262-.088.655-.287 1.284-.797 1.793-.51.51-1.138.709-1.793.797-.612.082-1.376.082-2.262.082H8.434c-.886 0-1.65 0-2.262-.082-.655-.088-1.284-.287-1.793-.797-.51-.51-.709-1.138-.797-1.793-.082-.612-.082-1.376-.082-2.262V7v-.066c0-.886 0-1.65.082-2.262.088-.655.287-1.284.797-1.793.51-.51 1.138-.709 1.793-.797C6.784 2 7.548 2 8.434 2zM6.44 4.064c-.434.059-.57.153-.646.229-.076.076-.17.212-.229.646C5.502 5.4 5.5 6.029 5.5 7v10c0 .971.002 1.599.064 2.061.059.434.153.57.229.646.076.076.212.17.646.229.462.062 1.09.064 2.061.064h7c.971 0 1.599-.002 2.061-.064.434-.059.57-.153.646-.229.076-.076.17-.212.229-.646.062-.462.064-1.09.064-2.061V7c0-.971-.002-1.599-.064-2.061-.059-.434-.153-.57-.229-.646-.076-.076-.212-.17-.646-.229C17.1 4.002 16.471 4 15.5 4h-7c-.971 0-1.599.002-2.061.064z" fill="#fff"/><path d="M7 17.5a1 1 0 0 1 1-1h2a1 1 0 1 1 0 2H8a1 1 0 0 1-1-1zm0-11a1 1 0 0 1 1-1h8a1 1 0 1 1 0 2H8a1 1 0 0 1-1-1zM9 10a1 1 0 1 1-2 0 1 1 0 0 1 2 0zm0 4a1 1 0 1 1-2 0 1 1 0 0 1 2 0zm4 0a1 1 0 1 1-2 0 1 1 0 0 1 2 0zm0-4a1 1 0 1 1-2 0 1 1 0 0 1 2 0zm4 0a1 1 0 1 1-2 0 1 1 0 0 1 2 0zm0 4a1 1 0 1 1-2 0 1 1 0 0 1 2 0zm0 3.5a1 1 0 1 1-2 0 1 1 0 0 1 2 0z" fill="#fff"/></svg>
